src/icons/icons_set_01/008-snapchat.svg

<svg height="50" viewBox="0 0 50 50" width="50" xmlns="http://www.w3.org/2000/svg"><path d="m21.2586453 39.3969252c-.1188962 0-.2325082 0-.3196988 0-.0871905 0-.1373912 0-.2087289 0-2.4968207 0-4.1666522-1.1810359-5.6409654-2.2220384-1.0568553-.745083-2.0529415-1.450534-3.2207667-1.6460522-.5596807-.0938292-1.1261204-.1415481-1.6936107-.1426755-.78996805.0068688-1.5771082.0954111-2.34886096.2642139-.29347933.0678805-.59226834.1103119-.89304277.1268226-.31284863.0369957-.60245289-.1701915-.66846101-.478227-.09775912-.3355516-.16909685-.6605346-.23779245-.9749491-.17173899-.7926415-.2959195-1.2603-.58655472-1.3052164-3.1335761-.4835113-4.98307295-1.1942465-5.35297232-2.0555836-.03709654-.0836007-.05944416-.1729914-.06605346-.2642138-.01556133-.2585246.1671072-.4868603.42274214-.5284277 2.4862522-.4095315 4.69772201-1.7253164 6.57364025-3.9077227.90824185-1.0510981 1.6634297-2.2252418 2.24317547-3.4876226-.00099471-.0078952-.00099471-.015884 0-.0237792.36197295-.7318724.43331069-1.3659856.21401321-1.8838447-.40424717-.9511698-1.74116919-1.3739119-2.6236434-1.6566207-.22193962-.0686956-.42802642-.1347491-.59448113-.2008026-.79264151-.3091302-2.07407862-.9643805-1.90233962-1.8653497.1241805-.6605345.99608616-1.1176245 1.7015371-1.1176245.17891732-.0097697.35773439.0209363.5231434.0898327.66347487.3433759 1.3937779.5381234 2.14013207.5707019.44060485.0312117.87720719-.1014627 1.22595221-.3725415-.02377925-.4095314-.05020063-.8402-.07662202-1.2497314-.17966541-2.8561516-.40424717-6.41511199.50464841-8.45484281 2.710834-6.1086239 8.4865484-6.58420881 10.1907277-6.58420881h.7424409.095117c1.7094635 0 7.4957465.47558491 10.2197911 6.58420881.9115378 2.03973082.686956 5.60133331.5072906 8.45484281v.134749c-.0237792.3883944-.0475585.7582937-.0660534 1.1123403.3145317.2509024.7074835.3828219 1.1096981.3725415.6975052-.056334 1.3771115-.249353 2.0000987-.5680598.2067439-.0891994.4301179-.1333338.6552503-.1294648.2561139-.0011434.5100271.0473064.7477252.1426755.6314711.2219396 1.0436446.668461 1.0568553 1.1387617.0132107.4703006-.3170566 1.0912031-1.9155503 1.7226742-.1638126.0660534-.3725415.1321069-.5944811.2034446-.8851164.2800667-2.2220384.7028088-2.6236434 1.6539786-.2192975.5284277-.1479598 1.1493302.2140132 1.8838447v.0237792c.1109698.2642139 2.8059509 6.4045434 8.8168157 7.3979875.2559173.0404825.4383619.2699726.4201.5284276-.0066093.0912225-.028957.1806132-.0660534.2642139-.3646151.8586949-2.2167541 1.5694302-5.3503302 2.0529415-.2932774.0449163-.4174579.5284276-.5865547 1.2999321-.0713378.3196987-.1426755.6341132-.2377925.9670226-.0614321.2882145-.3271707.4861051-.6209025.4623742h-.0502006c-.2995335-.0101381-.5975416-.0472787-.8904007-.1109698-.7724632-.1628067-1.5594381-.2469041-2.348861-.2510031-.568432.0021522-1.1357377.0507531-1.6962528.1453176-1.165183.1928761-2.1612692.8956849-3.2154824 1.6407679-1.4769553 1.0436446-3.1467868 2.2246805-5.6436075 2.2246805" fill="#000100" transform="translate(3.995 5.183962)"/></svg>

<?xml version="1.0" encoding="UTF-8"?>
<svg width="50px" height="50px" viewBox="0 0 50 50" version="1.1" xmlns="http://www.w3.org/2000/svg" xmlns:xlink="http://www.w3.org/1999/xlink">
    <!-- Generator: Sketch 52.4 (67378) - http://www.bohemiancoding.com/sketch -->
    <title>008-snapchat</title>
    <desc>Created with Sketch.</desc>
    <g id="008-snapchat" stroke="none" stroke-width="1" fill="none" fill-rule="evenodd">
        <g id="Group" transform="translate(3.995000, 5.183962)" fill="#000100" fill-rule="nonzero">
            <g id="193-snapchat">
                <g id="ICONSET-01">
                    <g id="193-snapchat">
                        <path d="M21.2586453,39.3969252 C21.1397491,39.3969252 21.0261371,39.3969252 20.9389465,39.3969252 C20.851756,39.3969252 20.8015553,39.3969252 20.7302176,39.3969252 C18.2333969,39.3969252 16.5635654,38.2158893 15.0892522,37.1748868 C14.0323969,36.4298038 13.0363107,35.7243528 11.8684855,35.5288346 C11.3088048,35.4350054 10.7423651,35.3872865 10.1748748,35.3861591 C9.38490675,35.3930279 8.5977666,35.4815702 7.82601384,35.650373 C7.53253451,35.7182535 7.2337455,35.7606849 6.93297107,35.7771956 C6.62012244,35.8141913 6.33051818,35.6070041 6.26451006,35.2989686 C6.16675094,34.963417 6.09541321,34.638434 6.02671761,34.3240195 C5.85497862,33.531378 5.73079811,33.0637195 5.44016289,33.0188031 C2.30658679,32.5352918 0.457089937,31.8245566 0.087190566,30.9632195 C0.0500940303,30.8796188 0.02774641,30.7902281 0.0211371069,30.6990057 C0.00557578309,30.4404811 0.18824431,30.2121454 0.443879245,30.170578 C2.93013145,29.7610465 5.14160126,28.4452616 7.0175195,26.2628553 C7.92576135,25.2117572 8.6809492,24.0376135 9.26069497,22.7752327 C9.25970026,22.7673375 9.25970026,22.7593487 9.26069497,22.7514535 C9.62266792,22.0195811 9.69400566,21.3854679 9.47470818,20.8676088 C9.07046101,19.916439 7.73353899,19.4936969 6.85106478,19.2109881 C6.62912516,19.1422925 6.42303836,19.076239 6.25658365,19.0101855 C5.46394214,18.7010553 4.18250503,18.045805 4.35424403,17.1448358 C4.47842453,16.4843013 5.35033019,16.0272113 6.05578113,16.0272113 C6.23469845,16.0174416 6.41351552,16.0481476 6.57892453,16.117044 C7.2423994,16.4604199 7.97270243,16.6551674 8.7190566,16.6877459 C9.15966145,16.7189576 9.59626379,16.5862832 9.94500881,16.3152044 C9.92122956,15.905673 9.89480818,15.4750044 9.86838679,15.065473 C9.68872138,12.2093214 9.46413962,8.65036101 10.3730352,6.61063019 C13.0838692,0.502006289 18.8595836,0.0264213836 20.5637629,0.0264213836 L21.3062038,0.0264213836 L21.4013208,0.0264213836 C23.1107843,0.0264213836 28.8970673,0.502006289 31.6211119,6.61063019 C32.5326497,8.65036101 32.3080679,12.2119635 32.1284025,15.065473 L32.1284025,15.200222 C32.1046233,15.5886164 32.080844,15.9585157 32.0623491,16.3125623 C32.3768808,16.5634647 32.7698326,16.6953842 33.1720472,16.6851038 C33.8695524,16.6287698 34.5491587,16.4357508 35.1721459,16.117044 C35.3788898,16.0278446 35.6022638,15.9837102 35.8273962,15.9875792 C36.0835101,15.9864358 36.3374233,16.0348856 36.5751214,16.1302547 C37.2065925,16.3521943 37.618766,16.7987157 37.6319767,17.2690164 C37.6451874,17.739317 37.3149201,18.3602195 35.7164264,18.9916906 C35.5526138,19.057744 35.3438849,19.1237975 35.1219453,19.1951352 C34.2368289,19.4752019 32.8999069,19.897944 32.4983019,20.8491138 C32.2790044,21.3775415 32.3503421,21.998444 32.7123151,22.7329585 L32.7123151,22.7567377 C32.8232849,23.0209516 35.518266,29.1612811 41.5291308,30.1547252 C41.7850481,30.1952077 41.9674927,30.4246978 41.9492308,30.6831528 C41.9426215,30.7743753 41.9202738,30.863766 41.8831774,30.9473667 C41.5185623,31.8060616 39.6664233,32.5167969 36.5328472,33.0003082 C36.2395698,33.0452245 36.1153893,33.5287358 35.9462925,34.3002403 C35.8749547,34.619939 35.803617,34.9343535 35.7085,35.2672629 C35.6470679,35.5554774 35.3813293,35.753368 35.0875975,35.7296371 L35.0373969,35.7296371 C34.7378634,35.719499 34.4398553,35.6823584 34.1469962,35.6186673 C33.374533,35.4558606 32.5875581,35.3717632 31.7981352,35.3676642 C31.2297032,35.3698164 30.6623975,35.4184173 30.1018824,35.5129818 C28.9366994,35.7058579 27.9406132,36.4086667 26.8864,37.1537497 C25.4094447,38.1973943 23.7396132,39.3784302 21.2427925,39.3784302" id="Shape"></path>
                    </g>
                </g>
            </g>
        </g>
    </g>
</svg>
